images/about-subtext-2.svg

<svg width="471" height="130" viewBox="0 0 471 130" fill="none" xmlns="http://www.w3.org/2000/svg">
<g opacity="0.1">
<mask id="path-1-outside-1_2634_8105" maskUnits="userSpaceOnUse" x="-1" y="-1" width="475" height="132" fill="black">
<rect fill="white" x="-1" y="-1" width="475" height="132"/>
<path d="M43.48 130C33.6533 130 25.8067 129.56 19.94 128.68C14.0733 127.8 9.67333 126.847 6.74 125.82C3.95333 124.647 1.97333 123.84 0.800001 123.4L9.38 106.46C12.6067 106.753 20.3067 107.267 32.48 108C44.6533 108.587 62.9133 108.88 87.26 108.88C93.7133 108.88 98.1867 107.487 100.68 104.7C103.173 101.767 104.42 97.9533 104.42 93.26V84.9C104.42 80.6467 103.173 76.98 100.68 73.9C98.3333 70.82 93.7867 69.28 87.04 69.28H25L7.4 71.48V0.64H106.84C114.173 0.64 119.38 0.93333 122.46 1.51999C125.54 2.10666 127.08 2.69332 127.08 3.27999L122.68 21.76H36.44V51.9C38.3467 51.6067 42.16 51.24 47.88 50.8C53.7467 50.36 61.6667 50.14 71.64 50.14H89.02C105.447 50.14 116.96 53.1467 123.56 59.16C130.16 65.0267 133.46 73.8267 133.46 85.56V90.62C133.46 95.1667 133.093 99.7867 132.36 104.48C131.627 109.027 130.013 113.28 127.52 117.24C125.027 121.053 121.067 124.133 115.64 126.48C110.213 128.827 102.807 130 93.42 130H43.48ZM202.399 130C192.132 130 184.066 128.533 178.199 125.6C172.332 122.667 168.152 118.267 165.659 112.4C163.312 106.533 162.139 99.2733 162.139 90.62V39.8C162.139 31.2933 163.312 24.18 165.659 18.46C168.006 12.5933 172.112 8.19332 177.979 5.25999C183.846 2.18 191.986 0.64 202.399 0.64H253.219C263.486 0.64 271.479 2.18 277.199 5.25999C283.066 8.19332 287.172 12.5933 289.519 18.46C292.012 24.18 293.259 31.2933 293.259 39.8V90.62C293.259 103.527 290.399 113.353 284.679 120.1C278.959 126.7 268.472 130 253.219 130H202.399ZM208.779 108.88H247.059C252.486 108.88 256.666 107.487 259.599 104.7C262.679 101.913 264.219 98.1 264.219 93.26V37.16C264.219 32.9067 262.679 29.3133 259.599 26.38C256.519 23.3 252.339 21.76 247.059 21.76H208.779C203.499 21.76 199.246 23.1533 196.019 25.94C192.792 28.7267 191.179 32.4667 191.179 37.16V93.26C191.179 98.2467 192.719 102.133 195.799 104.92C199.026 107.56 203.352 108.88 208.779 108.88ZM313.028 130L321.388 116.8L370.228 65.32L313.028 0.64H348.228L390.688 49.26H393.108L435.788 0.64H470.988L462.408 13.62L413.788 65.32L470.988 130H435.788L393.108 80.94H390.688L348.228 130H313.028Z"/>
</mask>
<path d="M19.94 128.68L19.7917 129.669L19.7917 129.669L19.94 128.68ZM6.74 125.82L6.35194 126.742L6.38045 126.754L6.40965 126.764L6.74 125.82ZM0.800001 123.4L-0.0920974 122.948L-0.59662 123.944L0.448877 124.336L0.800001 123.4ZM9.38 106.46L9.47054 105.464L8.79459 105.403L8.4879 106.008L9.38 106.46ZM32.48 108L32.4199 108.998L32.4319 108.999L32.48 108ZM100.68 104.7L101.425 105.367L101.434 105.357L101.442 105.348L100.68 104.7ZM100.68 73.9L99.8846 74.506L99.8935 74.5177L99.9028 74.5292L100.68 73.9ZM25 69.28V68.28H24.9377L24.876 68.2877L25 69.28ZM7.4 71.48H6.4V72.6128L7.52404 72.4723L7.4 71.48ZM7.4 0.64V-0.36H6.4V0.64H7.4ZM122.46 1.51999L122.647 0.53765L122.647 0.53765L122.46 1.51999ZM127.08 3.27999L128.053 3.51161L128.08 3.3974V3.27999H127.08ZM122.68 21.76V22.76H123.47L123.653 21.9916L122.68 21.76ZM36.44 21.76V20.76H35.44V21.76H36.44ZM36.44 51.9H35.44V53.0656L36.5921 52.8884L36.44 51.9ZM47.88 50.8L47.8052 49.8028L47.8033 49.8029L47.88 50.8ZM123.56 59.16L122.886 59.8992L122.896 59.9074L123.56 59.16ZM132.36 104.48L133.347 104.639L133.348 104.634L132.36 104.48ZM127.52 117.24L128.357 117.787L128.362 117.78L128.366 117.773L127.52 117.24ZM43.48 129C33.6753 129 25.8845 128.56 20.0883 127.691L19.7917 129.669C25.7288 130.56 33.6314 131 43.48 131V129ZM20.0883 127.691C14.2386 126.814 9.91319 125.871 7.07035 124.876L6.40965 126.764C9.43348 127.822 13.9081 128.786 19.7917 129.669L20.0883 127.691ZM7.12806 124.898C4.34139 123.725 2.34501 122.911 1.15112 122.464L0.448877 124.336C1.60165 124.769 3.56528 125.568 6.35194 126.742L7.12806 124.898ZM1.6921 123.852L10.2721 106.912L8.4879 106.008L-0.0920974 122.948L1.6921 123.852ZM9.28946 107.456C12.5346 107.751 20.2516 108.265 32.4199 108.998L32.5401 107.002C20.3618 106.268 12.6787 105.756 9.47054 105.464L9.28946 107.456ZM32.4319 108.999C44.6301 109.587 62.9098 109.88 87.26 109.88V107.88C62.9169 107.88 44.6765 107.587 32.5281 107.001L32.4319 108.999ZM87.26 109.88C93.8023 109.88 98.6424 108.477 101.425 105.367L99.9348 104.033C97.731 106.496 93.6244 107.88 87.26 107.88V109.88ZM101.442 105.348C104.121 102.196 105.42 98.1366 105.42 93.26H103.42C103.42 97.7701 102.226 101.337 99.9181 104.052L101.442 105.348ZM105.42 93.26V84.9H103.42V93.26H105.42ZM105.42 84.9C105.42 80.4356 104.106 76.5424 101.457 73.2708L99.9028 74.5292C102.241 77.4176 103.42 80.8577 103.42 84.9H105.42ZM101.475 73.294C98.8359 69.8296 93.8744 68.28 87.04 68.28V70.28C93.6989 70.28 97.8307 71.8104 99.8846 74.506L101.475 73.294ZM87.04 68.28H25V70.28H87.04V68.28ZM24.876 68.2877L7.27597 70.4877L7.52404 72.4723L25.124 70.2723L24.876 68.2877ZM8.4 71.48V0.64H6.4V71.48H8.4ZM7.4 1.64H106.84V-0.36H7.4V1.64ZM106.84 1.64C114.171 1.64 119.294 1.93499 122.273 2.50233L122.647 0.53765C119.466 -0.0683355 114.175 -0.36 106.84 -0.36V1.64ZM122.273 2.50233C123.797 2.79262 124.883 3.07304 125.569 3.33448C125.918 3.46736 126.104 3.57352 126.185 3.63542C126.29 3.71499 126.08 3.60293 126.08 3.27999H128.08C128.08 2.66372 127.678 2.25833 127.397 2.04456C127.094 1.81313 126.702 1.62595 126.281 1.4655C125.427 1.14028 124.203 0.834028 122.647 0.53765L122.273 2.50233ZM126.107 3.04837L121.707 21.5284L123.653 21.9916L128.053 3.51161L126.107 3.04837ZM122.68 20.76H36.44V22.76H122.68V20.76ZM35.44 21.76V51.9H37.44V21.76H35.44ZM36.5921 52.8884C38.455 52.6018 42.2306 52.2375 47.9567 51.7971L47.8033 49.8029C42.0894 50.2425 38.2383 50.6116 36.2879 50.9116L36.5921 52.8884ZM47.9548 51.7972C53.7854 51.3599 61.6771 51.14 71.64 51.14V49.14C61.6563 49.14 53.708 49.3601 47.8052 49.8028L47.9548 51.7972ZM71.64 51.14H89.02V49.14H71.64V51.14ZM89.02 51.14C105.384 51.14 116.573 54.1471 122.887 59.8992L124.234 58.4208C117.347 52.1463 105.509 49.14 89.02 49.14V51.14ZM122.896 59.9074C129.218 65.5272 132.46 74.0133 132.46 85.56H134.46C134.46 73.64 131.102 64.5261 124.224 58.4126L122.896 59.9074ZM132.46 85.56V90.62H134.46V85.56H132.46ZM132.46 90.62C132.46 95.1127 132.098 99.6811 131.372 104.326L133.348 104.634C134.089 99.8922 134.46 95.2206 134.46 90.62H132.46ZM131.373 104.321C130.661 108.733 129.097 112.859 126.674 116.707L128.366 117.773C130.93 113.701 132.592 109.321 133.347 104.639L131.373 104.321ZM126.683 116.693C124.325 120.3 120.543 123.27 115.243 125.562L116.037 127.398C121.591 124.996 125.729 121.807 128.357 117.787L126.683 116.693ZM115.243 125.562C109.994 127.832 102.741 129 93.42 129V131C102.872 131 110.433 129.821 116.037 127.398L115.243 125.562ZM93.42 129H43.48V131H93.42V129ZM178.199 125.6L178.646 124.706L178.646 124.706L178.199 125.6ZM165.659 112.4L164.731 112.771L164.735 112.781L164.739 112.791L165.659 112.4ZM165.659 18.46L166.584 18.8396L166.588 18.8314L165.659 18.46ZM177.979 5.25999L178.426 6.15442L178.435 6.14999L178.444 6.14539L177.979 5.25999ZM277.199 5.25999L276.725 6.14046L276.738 6.14765L276.752 6.15442L277.199 5.25999ZM289.519 18.46L288.591 18.8314L288.596 18.8456L288.602 18.8596L289.519 18.46ZM284.679 120.1L285.435 120.755L285.442 120.747L284.679 120.1ZM259.599 104.7L258.928 103.958L258.919 103.967L258.91 103.975L259.599 104.7ZM259.599 26.38L258.892 27.0871L258.901 27.0957L258.909 27.1041L259.599 26.38ZM195.799 104.92L195.128 105.662L195.147 105.678L195.166 105.694L195.799 104.92ZM202.399 129C192.209 129 184.317 127.541 178.646 124.706L177.752 126.494C183.814 129.526 192.056 131 202.399 131V129ZM178.646 124.706C172.985 121.875 168.977 117.65 166.579 112.009L164.739 112.791C167.328 118.883 171.679 123.458 177.752 126.494L178.646 124.706ZM166.588 112.029C164.302 106.315 163.139 99.19 163.139 90.62H161.139C161.139 99.3566 162.323 106.752 164.731 112.771L166.588 112.029ZM163.139 90.62V39.8H161.139V90.62H163.139ZM163.139 39.8C163.139 31.3778 164.302 24.403 166.584 18.8395L164.734 18.0804C162.323 23.957 161.139 31.2089 161.139 39.8H163.139ZM166.588 18.8314C168.84 13.2014 172.77 8.98279 178.426 6.15442L177.532 4.36557C171.455 7.40385 167.172 11.9852 164.731 18.0886L166.588 18.8314ZM178.444 6.14539C184.108 3.17172 192.064 1.64 202.399 1.64V-0.36C191.907 -0.36 183.583 1.18828 177.514 4.37459L178.444 6.14539ZM202.399 1.64H253.219V-0.36H202.399V1.64ZM253.219 1.64C263.407 1.64 271.212 3.17169 276.725 6.14046L277.673 4.37952C271.747 1.18831 263.565 -0.36 253.219 -0.36V1.64ZM276.752 6.15442C282.409 8.98279 286.339 13.2014 288.591 18.8314L290.448 18.0886C288.006 11.9852 283.723 7.40385 277.646 4.36557L276.752 6.15442ZM288.602 18.8596C291.025 24.4166 292.259 31.3839 292.259 39.8H294.259C294.259 31.2028 293 23.9434 290.436 18.0604L288.602 18.8596ZM292.259 39.8V90.62H294.259V39.8H292.259ZM292.259 90.62C292.259 103.396 289.426 112.954 283.916 119.453L285.442 120.747C291.372 113.752 294.259 103.657 294.259 90.62H292.259ZM283.923 119.445C278.496 125.708 268.387 129 253.219 129V131C268.557 131 279.423 127.692 285.435 120.755L283.923 119.445ZM253.219 129H202.399V131H253.219V129ZM208.779 109.88H247.059V107.88H208.779V109.88ZM247.059 109.88C252.653 109.88 257.113 108.441 260.288 105.425L258.91 103.975C256.219 106.532 252.319 107.88 247.059 107.88V109.88ZM260.27 105.442C263.595 102.433 265.219 98.3313 265.219 93.26H263.219C263.219 97.8687 261.763 101.393 258.928 103.958L260.27 105.442ZM265.219 93.26V37.16H263.219V93.26H265.219ZM265.219 37.16C265.219 32.633 263.567 28.7779 260.289 25.6559L258.909 27.1041C261.791 29.8487 263.219 33.1803 263.219 37.16H265.219ZM260.306 25.6729C257 22.3668 252.544 20.76 247.059 20.76V22.76C252.134 22.76 256.038 24.2332 258.892 27.0871L260.306 25.6729ZM247.059 20.76H208.779V22.76H247.059V20.76ZM208.779 20.76C203.318 20.76 198.814 22.2048 195.365 25.1832L196.673 26.6968C199.677 24.1019 203.68 22.76 208.779 22.76V20.76ZM195.365 25.1832C191.895 28.1803 190.179 32.209 190.179 37.16H192.179C192.179 32.7243 193.69 29.273 196.673 26.6968L195.365 25.1832ZM190.179 37.16V93.26H192.179V37.16H190.179ZM190.179 93.26C190.179 98.4676 191.797 102.648 195.128 105.662L196.47 104.178C193.641 101.619 192.179 98.0257 192.179 93.26H190.179ZM195.166 105.694C198.619 108.519 203.192 109.88 208.779 109.88V107.88C203.513 107.88 199.432 106.601 196.432 104.146L195.166 105.694ZM313.028 130L312.183 129.465L311.211 131H313.028V130ZM321.388 116.8L320.663 116.112L320.596 116.183L320.543 116.265L321.388 116.8ZM370.228 65.32L370.954 66.0083L371.584 65.3437L370.977 64.6575L370.228 65.32ZM313.028 0.64V-0.36H310.809L312.279 1.30246L313.028 0.64ZM348.228 0.64L348.981 -0.0177804L348.682 -0.36H348.228V0.64ZM390.688 49.26L389.935 49.9178L390.234 50.26H390.688V49.26ZM393.108 49.26V50.26H393.561L393.86 49.9197L393.108 49.26ZM435.788 0.64V-0.36H435.335L435.037 -0.0197074L435.788 0.64ZM470.988 0.64L471.822 1.19143L472.848 -0.36H470.988V0.64ZM462.408 13.62L463.137 14.3051L463.195 14.2428L463.242 14.1714L462.408 13.62ZM413.788 65.32L413.06 64.6349L412.435 65.2993L413.039 65.9825L413.788 65.32ZM470.988 130V131H473.207L471.737 129.338L470.988 130ZM435.788 130L435.034 130.656L435.333 131H435.788V130ZM393.108 80.94L393.863 80.2837L393.564 79.94H393.108V80.94ZM390.688 80.94V79.94H390.231L389.932 80.2856L390.688 80.94ZM348.228 130V131H348.685L348.984 130.654L348.228 130ZM313.873 130.535L322.233 117.335L320.543 116.265L312.183 129.465L313.873 130.535ZM322.114 117.488L370.954 66.0083L369.503 64.6317L320.663 116.112L322.114 117.488ZM370.977 64.6575L313.777 -0.0224638L312.279 1.30246L369.479 65.9825L370.977 64.6575ZM313.028 1.64H348.228V-0.36H313.028V1.64ZM347.475 1.29778L389.935 49.9178L391.441 48.6022L348.981 -0.0177804L347.475 1.29778ZM390.688 50.26H393.108V48.26H390.688V50.26ZM393.86 49.9197L436.54 1.29971L435.037 -0.0197074L392.357 48.6003L393.86 49.9197ZM435.788 1.64H470.988V-0.36H435.788V1.64ZM470.154 0.0885665L461.574 13.0686L463.242 14.1714L471.822 1.19143L470.154 0.0885665ZM461.68 12.9349L413.06 64.6349L414.517 66.0051L463.137 14.3051L461.68 12.9349ZM413.039 65.9825L470.239 130.662L471.737 129.338L414.537 64.6575L413.039 65.9825ZM470.988 129H435.788V131H470.988V129ZM436.543 129.344L393.863 80.2837L392.354 81.5963L435.034 130.656L436.543 129.344ZM393.108 79.94H390.688V81.94H393.108V79.94ZM389.932 80.2856L347.472 129.346L348.984 130.654L391.444 81.5944L389.932 80.2856ZM348.228 129H313.028V131H348.228V129Z" fill="#5CF4FF" mask="url(#path-1-outside-1_2634_8105)"/>
</g>
</svg>

<svg width="471" height="130" fill="none" xmlns="http://www.w3.org/2000/svg"><g opacity=".1"><mask id="path-1-outside-1_2634_8105" maskUnits="userSpaceOnUse" x="-1" y="-1" width="475" height="132" fill="#000"><path fill="#fff" d="M-1-1h475v132H-1z"/><path d="M43.48 130c-9.827 0-17.673-.44-23.54-1.32-5.867-.88-10.267-1.833-13.2-2.86-2.787-1.173-4.767-1.98-5.94-2.42l8.58-16.94c3.227.293 10.927.807 23.1 1.54 12.173.587 30.433.88 54.78.88 6.453 0 10.927-1.393 13.42-4.18 2.493-2.933 3.74-6.747 3.74-11.44V84.9c0-4.253-1.247-7.92-3.74-11-2.347-3.08-6.893-4.62-13.64-4.62H25l-17.6 2.2V.64h99.44c7.333 0 12.54.293 15.62.88s4.62 1.173 4.62 1.76l-4.4 18.48H36.44V51.9c1.907-.293 5.72-.66 11.44-1.1 5.867-.44 13.787-.66 23.76-.66h17.38c16.427 0 27.94 3.007 34.54 9.02 6.6 5.867 9.9 14.667 9.9 26.4v5.06a89.73 89.73 0 01-1.1 13.86c-.733 4.547-2.347 8.8-4.84 12.76-2.493 3.813-6.453 6.893-11.88 9.24-5.427 2.347-12.833 3.52-22.22 3.52H43.48zm158.919 0c-10.267 0-18.333-1.467-24.2-4.4-5.867-2.933-10.047-7.333-12.54-13.2-2.347-5.867-3.52-13.127-3.52-21.78V39.8c0-8.507 1.173-15.62 3.52-21.34 2.347-5.867 6.453-10.267 12.32-13.2 5.867-3.08 14.007-4.62 24.42-4.62h50.82c10.267 0 18.26 1.54 23.98 4.62 5.867 2.933 9.973 7.333 12.32 13.2 2.493 5.72 3.74 12.833 3.74 21.34v50.82c0 12.907-2.86 22.733-8.58 29.48-5.72 6.6-16.207 9.9-31.46 9.9h-50.82zm6.38-21.12h38.28c5.427 0 9.607-1.393 12.54-4.18 3.08-2.787 4.62-6.6 4.62-11.44v-56.1c0-4.253-1.54-7.847-4.62-10.78-3.08-3.08-7.26-4.62-12.54-4.62h-38.28c-5.28 0-9.533 1.393-12.76 4.18-3.227 2.787-4.84 6.527-4.84 11.22v56.1c0 4.987 1.54 8.873 4.62 11.66 3.227 2.64 7.553 3.96 12.98 3.96zM313.028 130l8.36-13.2 48.84-51.48-57.2-64.68h35.2l42.46 48.62h2.42L435.788.64h35.2l-8.58 12.98-48.62 51.7 57.2 64.68h-35.2l-42.68-49.06h-2.42L348.228 130h-35.2z"/></mask><path d="M19.94 128.68l-.148.989.148-.989zm-13.2-2.86l-.388.922.028.012.03.01.33-.944zM.8 123.4l-.892-.452-.505.996 1.046.392.351-.936zm8.58-16.94l.09-.996-.675-.061-.307.605.892.452zm23.1 1.54l-.06.998.012.001.048-.999zm68.2-3.3l.745.667.009-.01.008-.009-.762-.648zm0-30.8l-.795.606.008.012.01.011.777-.629zM25 69.28v-1h-.062l-.062.008.124.992zm-17.6 2.2h-1v1.133l1.124-.14-.124-.993zM7.4.64v-1h-1v1h1zm115.06.88l.187-.982-.187.982zm4.62 1.76l.973.232.027-.115V3.28h-1zm-4.4 18.48v1h.79l.183-.768-.973-.232zm-86.24 0v-1h-1v1h1zm0 30.14h-1v1.166l1.152-.178-.152-.988zm11.44-1.1l-.075-.997h-.002l.077.997zm75.68 8.36l-.674.74.01.007.664-.747zm8.8 45.32l.987.159.001-.005-.988-.154zm-4.84 12.76l.837.547.005-.007.004-.007-.846-.533zM43.48 129c-9.805 0-17.595-.44-23.392-1.309l-.296 1.978c5.937.891 13.84 1.331 23.688 1.331v-2zm-23.392-1.309c-5.85-.877-10.175-1.82-13.018-2.815l-.66 1.888c3.023 1.058 7.498 2.022 13.382 2.905l.296-1.978zm-12.96-2.793c-2.787-1.173-4.783-1.987-5.977-2.434l-.702 1.872c1.153.433 3.116 1.232 5.903 2.406l.776-1.844zm-5.436-1.046l8.58-16.94-1.784-.904-8.58 16.94 1.784.904zm7.597-16.396c3.246.295 10.963.809 23.13 1.542l.121-1.996c-12.178-.734-19.861-1.246-23.07-1.538l-.18 1.992zm23.143 1.543c12.198.588 30.478.881 54.828.881v-2c-24.343 0-42.584-.293-54.732-.879l-.096 1.998zm54.828.881c6.542 0 11.382-1.403 14.165-4.513l-1.49-1.334c-2.204 2.463-6.31 3.847-12.675 3.847v2zm14.182-4.532c2.679-3.152 3.978-7.211 3.978-12.088h-2c0 4.51-1.194 8.077-3.502 10.792l1.524 1.296zm3.978-12.088V84.9h-2v8.36h2zm0-8.36c0-4.464-1.314-8.358-3.963-11.63l-1.554 1.26c2.338 2.888 3.517 6.328 3.517 10.37h2zm-3.945-11.606c-2.64-3.464-7.6-5.014-14.435-5.014v2c6.659 0 10.79 1.53 12.845 4.226l1.59-1.212zM87.04 68.28H25v2h62.04v-2zm-62.164.008l-17.6 2.2.248 1.984 17.6-2.2-.248-1.984zM8.4 71.48V.64h-2v70.84h2zm-1-69.84h99.44v-2H7.4v2zm99.44 0c7.331 0 12.454.295 15.433.862l.374-1.964c-3.181-.606-8.472-.898-15.807-.898v2zm15.433.862c1.524.29 2.61.571 3.296.832.349.133.535.24.616.301.105.08-.105-.032-.105-.355h2c0-.616-.402-1.022-.683-1.235-.303-.232-.695-.419-1.116-.58-.854-.325-2.078-.631-3.634-.927l-.374 1.964zm3.834.546l-4.4 18.48 1.946.464 4.4-18.48-1.946-.464zM122.68 20.76H36.44v2h86.24v-2zm-87.24 1V51.9h2V21.76h-2zm1.152 31.128c1.863-.286 5.639-.65 11.365-1.09l-.154-1.995c-5.714.44-9.565.809-11.515 1.109l.304 1.976zm11.363-1.09c5.83-.438 13.722-.658 23.685-.658v-2c-9.984 0-17.932.22-23.835.663l.15 1.994zm23.685-.658h17.38v-2H71.64v2zm17.38 0c16.364 0 27.553 3.007 33.867 8.76l1.347-1.48c-6.887-6.274-18.725-9.28-35.214-9.28v2zm33.876 8.767c6.322 5.62 9.564 14.106 9.564 25.653h2c0-11.92-3.358-21.034-10.236-27.147l-1.328 1.494zm9.564 25.653v5.06h2v-5.06h-2zm0 5.06a88.66 88.66 0 01-1.088 13.706l1.976.308a90.677 90.677 0 001.112-14.014h-2zm-1.087 13.701c-.712 4.412-2.276 8.538-4.699 12.386l1.692 1.066c2.564-4.072 4.226-8.452 4.981-13.134l-1.974-.318zm-4.69 12.372c-2.358 3.607-6.14 6.577-11.44 8.869l.794 1.836c5.554-2.402 9.692-5.591 12.32-9.611l-1.674-1.094zm-11.44 8.869c-5.249 2.27-12.502 3.438-21.823 3.438v2c9.452 0 17.013-1.179 22.617-3.602l-.794-1.836zM93.42 129H43.48v2h49.94v-2zm84.779-3.4l.447-.894-.447.894zm-12.54-13.2l-.928.371.004.01.004.01.92-.391zm0-93.94l.925.38.004-.009-.929-.371zm12.32-13.2l.447.894.009-.004.009-.005-.465-.885zm99.22 0l-.474.88.013.008.014.006.447-.894zm12.32 13.2l-.928.371.005.015.006.014.917-.4zm-4.84 101.64l.756.655.007-.008-.763-.647zm-25.08-15.4l-.671-.742-.009.009-.009.008.689.725zm0-78.32l-.707.707.009.009.008.008.69-.724zm-63.8 78.54l-.671.742.019.016.019.016.633-.774zm6.6 24.08c-10.19 0-18.082-1.459-23.753-4.294l-.894 1.788c6.062 3.032 14.304 4.506 24.647 4.506v-2zm-23.753-4.294c-5.661-2.831-9.669-7.056-12.067-12.697l-1.84.782c2.589 6.092 6.94 10.667 13.013 13.703l.894-1.788zm-12.058-12.677c-2.286-5.714-3.449-12.839-3.449-21.409h-2c0 8.737 1.184 16.132 3.592 22.151l1.857-.742zm-3.449-21.409V39.8h-2v50.82h2zm0-50.82c0-8.422 1.163-15.397 3.445-20.96l-1.85-.76c-2.411 5.877-3.595 13.129-3.595 21.72h2zm3.449-20.969c2.252-5.63 6.182-9.848 11.838-12.677l-.894-1.788c-6.077 3.038-10.36 7.62-12.801 13.723l1.857.742zm11.856-12.686c5.664-2.973 13.62-4.505 23.955-4.505v-2c-10.492 0-18.816 1.548-24.885 4.735l.93 1.77zm23.955-4.505h50.82v-2h-50.82v2zm50.82 0c10.188 0 17.993 1.532 23.506 4.5l.948-1.76c-5.926-3.192-14.108-4.74-24.454-4.74v2zm23.533 4.514c5.657 2.829 9.587 7.047 11.839 12.677l1.857-.742c-2.442-6.104-6.725-10.685-12.802-13.723l-.894 1.788zm11.85 12.706c2.423 5.557 3.657 12.524 3.657 20.94h2c0-8.597-1.259-15.857-3.823-21.74l-1.834.8zm3.657 20.94v50.82h2V39.8h-2zm0 50.82c0 12.776-2.833 22.334-8.343 28.833l1.526 1.294c5.93-6.995 8.817-17.09 8.817-30.127h-2zm-8.336 28.825c-5.427 6.263-15.536 9.555-30.704 9.555v2c15.338 0 26.204-3.308 32.216-10.245l-1.512-1.31zM253.219 129h-50.82v2h50.82v-2zm-44.44-19.12h38.28v-2h-38.28v2zm38.28 0c5.594 0 10.054-1.439 13.229-4.455l-1.378-1.45c-2.691 2.557-6.591 3.905-11.851 3.905v2zm13.211-4.438c3.325-3.009 4.949-7.11 4.949-12.182h-2c0 4.609-1.456 8.133-4.291 10.698l1.342 1.484zm4.949-12.182v-56.1h-2v56.1h2zm0-56.1c0-4.527-1.652-8.382-4.93-11.504l-1.38 1.448c2.882 2.745 4.31 6.076 4.31 10.056h2zm-4.913-11.487c-3.306-3.306-7.762-4.913-13.247-4.913v2c5.075 0 8.979 1.473 11.833 4.327l1.414-1.414zm-13.247-4.913h-38.28v2h38.28v-2zm-38.28 0c-5.461 0-9.965 1.445-13.414 4.423l1.308 1.514c3.004-2.595 7.007-3.937 12.106-3.937v-2zm-13.414 4.423c-3.47 2.997-5.186 7.026-5.186 11.977h2c0-4.436 1.511-7.887 4.494-10.463l-1.308-1.514zm-5.186 11.977v56.1h2v-56.1h-2zm0 56.1c0 5.208 1.618 9.388 4.949 12.402l1.342-1.484c-2.829-2.559-4.291-6.152-4.291-10.918h-2zm4.987 12.434c3.453 2.825 8.026 4.186 13.613 4.186v-2c-5.266 0-9.347-1.279-12.347-3.734l-1.266 1.548zM313.028 130l-.845-.535-.972 1.535h1.817v-1zm8.36-13.2l-.725-.688-.067.071-.053.082.845.535zm48.84-51.48l.726.688.63-.664-.607-.686-.749.662zM313.028.64v-1h-2.219l1.47 1.662.749-.662zm35.2 0l.753-.658-.299-.342h-.454v1zm42.46 48.62l-.753.658.299.342h.454v-1zm2.42 0v1h.453l.299-.34-.752-.66zM435.788.64v-1h-.453l-.298.34.751.66zm35.2 0l.834.551 1.026-1.551h-1.86v1zm-8.58 12.98l.729.685.058-.062.047-.072-.834-.551zm-48.62 51.7l-.728-.685-.625.664.604.683.749-.662zm57.2 64.68v1h2.219l-1.47-1.662-.749.662zm-35.2 0l-.754.656.299.344h.455v-1zm-42.68-49.06l.755-.656-.299-.344h-.456v1zm-2.42 0v-1h-.457l-.299.346.756.654zM348.228 130v1h.457l.299-.346-.756-.654zm-34.355.535l8.36-13.2-1.69-1.07-8.36 13.2 1.69 1.07zm8.241-13.047l48.84-51.48-1.451-1.376-48.84 51.48 1.451 1.376zm48.863-52.83l-57.2-64.68-1.498 1.324 57.2 64.68 1.498-1.325zM313.028 1.64h35.2v-2h-35.2v2zm34.447-.342l42.46 48.62 1.506-1.316-42.46-48.62-1.506 1.316zm43.213 48.962h2.42v-2h-2.42v2zm3.172-.34L436.54 1.3l-1.503-1.32-42.68 48.62 1.503 1.32zm41.928-48.28h35.2v-2h-35.2v2zM470.154.089l-8.58 12.98 1.668 1.102 8.58-12.98L470.154.09zm-8.474 12.846l-48.62 51.7 1.457 1.37 48.62-51.7-1.457-1.37zm-48.641 53.047l57.2 64.68 1.498-1.324-57.2-64.68-1.498 1.325zM470.988 129h-35.2v2h35.2v-2zm-34.445.344l-42.68-49.06-1.509 1.312 42.68 49.06 1.509-1.312zM393.108 79.94h-2.42v2h2.42v-2zm-3.176.346l-42.46 49.06 1.512 1.308 42.46-49.06-1.512-1.308zM348.228 129h-35.2v2h35.2v-2z" fill="#5CF4FF" mask="url(#path-1-outside-1_2634_8105)"/></g></svg>
